!!!OTL: Buchdrucker - Orden
!!!ARE: Europa, Mitteleuropa, Deutschland
!!!SCT: A0456
!!!YEM: Copyright 1995, estate of Helmut Schaffrath.
**kern
*ICvox
*Ivox
!! Mixed meters:  4/2; 6/2
*M4/2
*k[f#]
*G:
{2g
=1
2g
2g
2dd
2dd
=2
1ee
1cc}
=3
{1dd
=4
*M6/2
2ffn
2ffn
2ee
1dd
2cc#
=5
*M4/2
1.dd}
{2g
=6
2g
2g
2dd
2dd
=7
1ee
1cc}
=8
{1dd
=9
*M6/2
2ffn
2ffn
2ee
1dd
2cc#
=10
*M4/2
1.dd}
{2dd
=11
2dd
2dd
2ee
2ee
=12
1ffn
2.ffn}
{4ee
=13
*M6/2
1dd
2cc
2b-
2a
2g
=14
*M4/2
1fn
2r}
{2ffn
=15
2ffn
2ffn
2gg
2gg
=16
*M6/2
1ffn
1dd
2r}
{2dd
=17
2b-
1cc
4dd
4cc
4b-
4a
2g
=18
4ee-
4dd
4cc
4b-
2cc
2b-
1a
=19
1.g}
==
!!!AGN: Romanze, Ballade, Lied
!! Rotenbucher, Bergkreyen 1551 No. 23.
!!!ONB: ESAC (Essen Associative Code) Database: ALTDEU
!!!AMT: irregular
!!!AIN: vox
!!!EED: Helmut Schaffrath
!!!EEV: 1.0
*-
